css/img/polygon-bw.svg

<?xml version="1.0" encoding="UTF-8" standalone="no"?>
<svg
   clip-rule="evenodd"
   fill-rule="evenodd"
   stroke-linejoin="round"
   stroke-miterlimit="2"
   viewBox="0 0 64 64"
   version="1.1"
   id="svg10"
   sodipodi:docname="polygon-bw.svg"
   inkscape:version="1.1.2 (0a00cf5339, 2022-02-04)"
   xmlns:inkscape="http://www.inkscape.org/namespaces/inkscape"
   xmlns:sodipodi="http://sodipodi.sourceforge.net/DTD/sodipodi-0.dtd"
   xmlns="http://www.w3.org/2000/svg"
   xmlns:svg="http://www.w3.org/2000/svg"
   xmlns:rdf="http://www.w3.org/1999/02/22-rdf-syntax-ns#"
   xmlns:cc="http://creativecommons.org/ns#"
   xmlns:dc="http://purl.org/dc/elements/1.1/">
  <metadata
     id="metadata16">
    <rdf:RDF>
      <cc:Work
         rdf:about="">
        <dc:format>image/svg+xml</dc:format>
        <dc:type
           rdf:resource="http://purl.org/dc/dcmitype/StillImage" />
      </cc:Work>
    </rdf:RDF>
  </metadata>
  <defs
     id="defs14">
    <filter
       style="color-interpolation-filters:sRGB"
       inkscape:label="Greyscale"
       id="filter959"
       x="-0.041664941"
       y="-0.0625"
       width="1.0833316"
       height="1.125">
      <feColorMatrix
         values="0.21 0.72 0.072 0.62 0 0.21 0.72 0.072 0.62 0 0.21 0.72 0.072 0.62 0 0 0 0 1 0 "
         id="feColorMatrix957" />
    </filter>
    <filter
       style="color-interpolation-filters:sRGB"
       inkscape:label="Greyscale"
       id="filter939"
       x="0"
       y="0"
       width="1"
       height="1">
      <feColorMatrix
         values="0.21 0.72 0.072 0.62 0 0.21 0.72 0.072 0.62 0 0.21 0.72 0.072 0.62 0 0 0 0 1 0 "
         id="feColorMatrix937" />
    </filter>
    <filter
       style="color-interpolation-filters:sRGB"
       inkscape:label="Greyscale"
       id="filter1005"
       x="0"
       y="0"
       width="1"
       height="1">
      <feColorMatrix
         values="0.21 0.72 0.072 0.62 0 0.21 0.72 0.072 0.62 0 0.21 0.72 0.072 0.62 0 0 0 0 1 0 "
         id="feColorMatrix1003" />
    </filter>
  </defs>
  <sodipodi:namedview
     pagecolor="#ffffff"
     bordercolor="#666666"
     borderopacity="1"
     objecttolerance="10"
     gridtolerance="10"
     guidetolerance="10"
     inkscape:pageopacity="0"
     inkscape:pageshadow="2"
     inkscape:window-width="1920"
     inkscape:window-height="1012"
     id="namedview12"
     showgrid="false"
     inkscape:zoom="1.7401456"
     inkscape:cx="-215.21188"
     inkscape:cy="-64.937095"
     inkscape:window-x="0"
     inkscape:window-y="0"
     inkscape:window-maximized="1"
     inkscape:current-layer="svg10"
     inkscape:pagecheckerboard="0" />
  <path
     d="m0 0h64v64h-64z"
     fill="none"
     id="path2" />
  <text
     xml:space="preserve"
     style="font-style:normal;font-weight:normal;font-size:40px;line-height:1.25;font-family:sans-serif;letter-spacing:0px;word-spacing:0px;fill:#000000;fill-opacity:1;stroke:none"
     x="17.627119"
     y="10.847458"
     id="text827"><tspan
       sodipodi:role="line"
       id="tspan825"
       x="17.627119"
       y="46.238083" /></text>
  <g
     id="SVGRepo_iconCarrier-4"
     transform="matrix(1.6480473,0,0,1.6480473,-7.5748266,-6.8424727)">
    <path
       fill-rule="evenodd"
       clip-rule="evenodd"
       d="m 14,40 c 1.1046,0 2,-0.8954 2,-2 0,-1.1046 -0.8954,-2 -2,-2 -1.1046,0 -2,0.8954 -2,2 0,1.1046 0.8954,2 2,2 z m 0,2 c 2.2091,0 4,-1.7909 4,-4 0,-2.2091 -1.7909,-4 -4,-4 -2.2091,0 -4,1.7909 -4,4 0,2.2091 1.7909,4 4,4 z"
       fill="#9a9996"
       id="path4" />
    <path
       fill-rule="evenodd"
       clip-rule="evenodd"
       d="m 10,22 c 1.1046,0 2,-0.8954 2,-2 0,-1.1046 -0.8954,-2 -2,-2 -1.10457,0 -2,0.8954 -2,2 0,1.1046 0.89543,2 2,2 z m 0,2 c 2.2091,0 4,-1.7909 4,-4 0,-2.2091 -1.7909,-4 -4,-4 -2.20914,0 -4,1.7909 -4,4 0,2.2091 1.79086,4 4,4 z"
       fill="#9a9996"
       id="path6-4" />
    <path
       fill-rule="evenodd"
       clip-rule="evenodd"
       d="m 38,22 c 1.1046,0 2,-0.8954 2,-2 0,-1.1046 -0.8954,-2 -2,-2 -1.1046,0 -2,0.8954 -2,2 0,1.1046 0.8954,2 2,2 z m 0,2 c 2.2091,0 4,-1.7909 4,-4 0,-2.2091 -1.7909,-4 -4,-4 -2.2091,0 -4,1.7909 -4,4 0,2.2091 1.7909,4 4,4 z"
       fill="#9a9996"
       id="path8-4" />
    <path
       fill-rule="evenodd"
       clip-rule="evenodd"
       d="m 34,40 c 1.1046,0 2,-0.8954 2,-2 0,-1.1046 -0.8954,-2 -2,-2 -1.1046,0 -2,0.8954 -2,2 0,1.1046 0.8954,2 2,2 z m 0,2 c 2.2091,0 4,-1.7909 4,-4 0,-2.2091 -1.7909,-4 -4,-4 -2.2091,0 -4,1.7909 -4,4 0,2.2091 1.7909,4 4,4 z"
       fill="#9a9996"
       id="path10-4" />
    <path
       fill-rule="evenodd"
       clip-rule="evenodd"
       d="m 24,12 c 1.1046,0 2,-0.8954 2,-2 0,-1.10457 -0.8954,-2 -2,-2 -1.1046,0 -2,0.89543 -2,2 0,1.1046 0.8954,2 2,2 z m 0,2 c 2.2091,0 4,-1.7909 4,-4 0,-2.20914 -1.7909,-4 -4,-4 -2.2091,0 -4,1.79086 -4,4 0,2.2091 1.7909,4 4,4 z"
       fill="#9a9996"
       id="path12-7" />
    <path
       fill-rule="evenodd"
       clip-rule="evenodd"
       d="m 34.9188,19.028 -9,-6.4285 1.1624,-1.6275 9,6.4286 z M 21.7844,12.8115 13.0812,19.028 11.9188,17.4006 20.622,11.184 Z m -10.1415,9.9716 2.6666,12 -1.9523,0.4338 -2.66671,-12 z m 22.0476,12 2.5555,-11.5 1.9524,0.4338 -2.5555,11.5 z M 17,37 h 14 v 2 H 17 Z"
       fill="#9a9996"
       id="path14-6" />
  </g>
</svg>

<!DOCTYPE svg PUBLIC "-//W3C//DTD SVG 1.1//EN" "http://www.w3.org/Graphics/SVG/1.1/DTD/svg11.dtd">
<!-- Uploaded to: SVG Repo, www.svgrepo.com, Transformed by: SVG Repo Mixer Tools -->
<svg width="251px" height="251px" viewBox="0 0 48 48" fill="none" xmlns="http://www.w3.org/2000/svg" stroke="#9a9996" stroke-width="0.8160000000000001">
<g id="SVGRepo_bgCarrier" stroke-width="0"/>
<g id="SVGRepo_tracerCarrier" stroke-linecap="round" stroke-linejoin="round"/>
<g id="SVGRepo_iconCarrier"> <path fill-rule="evenodd" clip-rule="evenodd" d="M14 40C15.1046 40 16 39.1046 16 38C16 36.8954 15.1046 36 14 36C12.8954 36 12 36.8954 12 38C12 39.1046 12.8954 40 14 40ZM14 42C16.2091 42 18 40.2091 18 38C18 35.7909 16.2091 34 14 34C11.7909 34 10 35.7909 10 38C10 40.2091 11.7909 42 14 42Z" fill="#9a9996"/> <path fill-rule="evenodd" clip-rule="evenodd" d="M10 22C11.1046 22 12 21.1046 12 20C12 18.8954 11.1046 18 10 18C8.89543 18 8 18.8954 8 20C8 21.1046 8.89543 22 10 22ZM10 24C12.2091 24 14 22.2091 14 20C14 17.7909 12.2091 16 10 16C7.79086 16 6 17.7909 6 20C6 22.2091 7.79086 24 10 24Z" fill="#9a9996"/> <path fill-rule="evenodd" clip-rule="evenodd" d="M38 22C39.1046 22 40 21.1046 40 20C40 18.8954 39.1046 18 38 18C36.8954 18 36 18.8954 36 20C36 21.1046 36.8954 22 38 22ZM38 24C40.2091 24 42 22.2091 42 20C42 17.7909 40.2091 16 38 16C35.7909 16 34 17.7909 34 20C34 22.2091 35.7909 24 38 24Z" fill="#9a9996"/> <path fill-rule="evenodd" clip-rule="evenodd" d="M34 40C35.1046 40 36 39.1046 36 38C36 36.8954 35.1046 36 34 36C32.8954 36 32 36.8954 32 38C32 39.1046 32.8954 40 34 40ZM34 42C36.2091 42 38 40.2091 38 38C38 35.7909 36.2091 34 34 34C31.7909 34 30 35.7909 30 38C30 40.2091 31.7909 42 34 42Z" fill="#9a9996"/> <path fill-rule="evenodd" clip-rule="evenodd" d="M24 12C25.1046 12 26 11.1046 26 10C26 8.89543 25.1046 8 24 8C22.8954 8 22 8.89543 22 10C22 11.1046 22.8954 12 24 12ZM24 14C26.2091 14 28 12.2091 28 10C28 7.79086 26.2091 6 24 6C21.7909 6 20 7.79086 20 10C20 12.2091 21.7909 14 24 14Z" fill="#9a9996"/> <path fill-rule="evenodd" clip-rule="evenodd" d="M34.9188 19.028L25.9188 12.5995L27.0812 10.972L36.0812 17.4006L34.9188 19.028ZM21.7844 12.8115L13.0812 19.028L11.9188 17.4006L20.622 11.184L21.7844 12.8115ZM11.6429 22.7831L14.3095 34.7831L12.3572 35.2169L9.69049 23.2169L11.6429 22.7831ZM33.6905 34.7831L36.246 23.2831L38.1984 23.7169L35.6429 35.2169L33.6905 34.7831ZM17 37H31V39H17V37Z" fill="#9a9996"/> </g>
</svg>
